jsapp/svg-icons/instagram.svg

<svg height="40" viewBox="0 0 40 40" width="40" xmlns="http://www.w3.org/2000/svg"><path d="m19.9711111 28.0463492v-.0057143c1.4609524 0 2.9225397.0361905 4.3819048-.0111111 1.1895238-.0384127 2.2457143-.447619 2.9742857-1.46.4911111-.6825397.704127-1.4726984.7101587-2.2961905.0206349-2.8384127.0539683-5.6777777-.0012698-8.5152381-.0473016-2.4311111-1.4076191-3.8101587-3.8257143-3.8638095-2.82-.0625397-5.6438095-.0638095-8.464127-.0012698-2.4419048.0546031-3.7990476 1.4050793-3.8523809 3.8336508-.0622223 2.8368254-.06 5.6771428.0019047 8.5139682.0514286 2.3615873 1.4406349 3.7174603 3.7930159 3.7968254 1.4257143.048254 2.8546032.0088889 4.2822222.0088889m-9.9711111-4.0952381v-7.9720635c.031746-.227619.0790476-.4539682.0926984-.6825397.1514286-2.571746 1.7844445-4.5168254 4.2765079-5.0565079.5292064-.1146032 1.0726985-.1619048 1.6098413-.24h7.9720635c.2107937.0311111.4206349.0790476.632381.0907937 2.9536508.1619047 5.1555555 2.2926984 5.2292063 5.2390476.0774603 3.1009524.08 6.2069841-.0031746 9.307619-.0780952 2.8977778-2.2723809 5.0942857-5.1698413 5.171746-3.1171428.0834921-6.2396825.0761905-9.3574603.0009524-2.5746032-.0622222-4.5320635-1.7942857-5.051746-4.2904762-.1076191-.5165079-.1552381-1.0453968-.2304762-1.5685714m13.266-3.9787619c.0022222-1.8555555-1.4533333-3.3136508-3.3063492-3.3123809-1.8530159.0015873-3.3038095 1.4603174-3.2996825 3.3177777.0044444 1.828254 1.4539682 3.2812699 3.2803174 3.288254 1.8574603.0069841 3.3234921-1.4450794 3.3257143-3.2936508m-3.3453968 5.1c-2.8561905-.027619-5.1034921-2.3171429-5.0685715-5.164127.0349207-2.8571428 2.3273016-5.095873 5.1768254-5.0561905 2.8355556.0393651 5.060635 2.3066667 5.0434921 5.1396826-.0171429 2.8536508-2.3031746 5.108254-5.151746 5.0806349m5.3522857-11.6129206c.684127-.0031746 1.1939682.5 1.195873 1.1806349.0015873.6663492-.5288889 1.2088889-1.1847619 1.2111111-.6434921.0022222-1.2088889-.5565079-1.2139683-1.1993651-.0053968-.6520635.536508-1.1892063 1.2028572-1.1923809" fill-rule="evenodd"/></svg>

<?xml version="1.0" encoding="UTF-8"?>
<svg width="40px" height="40px" viewBox="0 0 40 40" version="1.1" xmlns="http://www.w3.org/2000/svg" xmlns:xlink="http://www.w3.org/1999/xlink">
    <!-- Generator: Sketch 50.2 (55047) - http://www.bohemiancoding.com/sketch -->
    <title>Icons/instagram</title>
    <desc>Created with Sketch.</desc>
    <defs>
        <path d="M19.9711111,28.0463492 L19.9711111,28.0406349 C21.4320635,28.0406349 22.8936508,28.0768254 24.3530159,28.0295238 C25.5425397,27.9911111 26.5987302,27.5819048 27.3273016,26.5695238 C27.8184127,25.8869841 28.0314286,25.0968254 28.0374603,24.2733333 C28.0580952,21.4349206 28.0914286,18.5955556 28.0361905,15.7580952 C27.9888889,13.3269841 26.6285714,11.9479365 24.2104762,11.8942857 C21.3904762,11.831746 18.5666667,11.8304762 15.7463492,11.8930159 C13.3044444,11.947619 11.9473016,13.2980952 11.8939683,15.7266667 C11.831746,18.5634921 11.8339683,21.4038095 11.895873,24.2406349 C11.9473016,26.6022222 13.3365079,27.9580952 15.6888889,28.0374603 C17.1146032,28.0857143 18.5434921,28.0463492 19.9711111,28.0463492 M10,23.9511111 L10,15.9790476 C10.031746,15.7514286 10.0790476,15.5250794 10.0926984,15.2965079 C10.244127,12.7247619 11.8771429,10.7796825 14.3692063,10.24 C14.8984127,10.1253968 15.4419048,10.0780952 15.9790476,10 L23.9511111,10 C24.1619048,10.0311111 24.371746,10.0790476 24.5834921,10.0907937 C27.5371429,10.2526984 29.7390476,12.3834921 29.8126984,15.3298413 C29.8901587,18.4307937 29.8926984,21.5368254 29.8095238,24.6374603 C29.7314286,27.5352381 27.5371429,29.731746 24.6396825,29.8092063 C21.5225397,29.8926984 18.4,29.8853968 15.2822222,29.8101587 C12.707619,29.7479365 10.7501587,28.015873 10.2304762,25.5196825 C10.1228571,25.0031746 10.0752381,24.4742857 10,23.9511111 M23.266,19.9723492 C23.2682222,18.1167937 21.8126667,16.6586984 19.9596508,16.6599683 C18.1066349,16.6615556 16.6558413,18.1202857 16.6599683,19.977746 C16.6644127,21.806 18.1139365,23.2590159 19.9402857,23.266 C21.797746,23.2729841 23.2637778,21.8209206 23.266,19.9723492 M19.9206032,25.0723492 C17.0644127,25.0447302 14.8171111,22.7552063 14.8520317,19.9082222 C14.8869524,17.0510794 17.1793333,14.8123492 20.0288571,14.8520317 C22.8644127,14.8913968 25.0894921,17.1586984 25.0723492,19.9917143 C25.0552063,22.8453651 22.7691746,25.0999683 19.9206032,25.0723492 M25.2728889,13.4594286 C25.9570159,13.456254 26.4668571,13.9594286 26.4687619,14.6400635 C26.4703492,15.3064127 25.939873,15.8489524 25.284,15.8511746 C24.6405079,15.8533968 24.0751111,15.2946667 24.0700317,14.6518095 C24.0646349,13.999746 24.6065397,13.4626032 25.2728889,13.4594286" id="path-1"></path>
    </defs>
    <g id="Icons/instagram" stroke="none" stroke-width="1" fill="none" fill-rule="evenodd">
        <mask id="mask-2" fill="white">
            <use xlink:href="#path-1"></use>
        </mask>
        <use id="Mask" fill="#000000" xlink:href="#path-1"></use>
    </g>
</svg>
